!!!OTL: Youchun, 2)
!!!ARE: Asia, China,ÿHenan Shangcheng
!! IV, 110, 2)
!!!SCT: C1934
!!!YEM: Copyright 1995, estate of Helmut Schaffrath.
**kern
*ICvox
*Ivox
*M2/4
*k[b-e-]
*B-:
{8bb-
16ccc
16ddd
16ccc
16bb-
8gg
=1
16ff
16dd
4ff
8gg
=2
8.bb-
16ccc
8fff
8ddd
=3
2ccc}
=4
{4fff
8fff
8ddd
=5
8.ccc
16ddd
8ccc
8bb-
=6
16gg
16bb-
16gg
16ff
8dd
16cc
16dd
=7
2ff}
=8
{8ccc
16ddd
16ccc
8bb-
16gg
16bb-
=9
8ccc
16ddd
16ccc
4bb-
=10
8.dd
16ff
8gg
8bb-
=11
16ff
16gg
16ff
16dd
4ff}
=12
{8.bb-
16ccc
8bb-
8gg
=13
8ff
8dd
4ff
=14
8.bb-
16ccc
8bb-
8gg
=15
16ff
16gg
16ff
16dd
4ff}
=16
{8.dd
16ff
8gg
8bb-
=17
8ff
8gg
8ff
8dd
=18
4bb-
8ccc
8ddd
=19
8gg
4ff
8cc
=20
8ff
16gg
16bb-
8dd
8cc
=21
2b-}
=22
{8ddd
16r
16ccc
8bb-
8ddd
=23
8ccc
8bb-
16gg
16ff
8dd
=24
8.dd
16ff
8gg
8bb-
=25
8ff
16gg
16bb-
8ff
8dd}
=26
{4bb-
8ccc
8ddd
=27
8gg
4ff
8cc
=28
8ff
16gg
16bb-
8dd
8cc
=29
2b-}
==
!!!AGN: Xiaodiao, Chuiginshan
!!!AMT: simple duple
!!!AIN: vox
!!!EED: Helmut Schaffrath
!!!EEV: 1.0
*-
